svgs/1F468-1F3FC-200D-1F9B3.svg

<svg xmlns="http://www.w3.org/2000/svg" xmlns:xlink="http://www.w3.org/1999/xlink" preserveAspectRatio="none" viewBox="0 0 72 72"><defs><path id="a" fill="#C48E6A" d="M106.9 66.05h-3.6v20.3q4.75 0 7.85-2.4 3.6-2.8 3.6-8.05 0-5.3-3.9-8.1l-3.95-1.75z"/><path id="b" fill="#C48E6A" d="M24.7 66.05h-3.65l-3.9 1.75q-3.95 2.8-3.95 8.1 0 5.25 3.6 8.05 3.1 2.4 7.9 2.4v-20.3z"/><path id="c" fill="#E0BB95" d="M106.75 73.8q0-30.45-8.65-45.45Q87.85 10.6 64 10.6q-23.9 0-34.15 17.75-8.65 15-8.65 45.45 0 25.9 14.6 38.45Q47.05 122 64 122q16.8 0 28.1-9.65 14.65-12.55 14.65-38.55z"/><path id="d" fill="#444" d="M40.15 72.35q-1.7 2-1.7 4.85 0 2.9 1.7 4.9 1.65 2 4.05 2 2.35 0 4.05-2 1.65-2.05 1.65-4.9 0-2.85-1.65-4.85-1.7-2.05-4.05-2.05-2.4 0-4.05 2.05z"/><path id="e" fill="#444" d="M87.85 72.35q-1.7-2.05-4.05-2.05-2.4 0-4.05 2.05-1.7 2-1.7 4.85 0 2.85 1.7 4.9 1.65 2 4.05 2 2.35 0 4.05-2 1.65-2 1.65-4.9 0-2.85-1.65-4.85z"/><path id="f" fill="#513F35" d="M63.95 108.75q4.9 0 9-2.15 3.2-1.7 4.5-3.7.7-1.05.35-1.7-.35-.65-1.45-.65H51.6q-1.1 0-1.45.65-.35.65.35 1.7 1.3 2 4.5 3.7 4.1 2.15 8.95 2.15z"/><path id="g" fill="#C48E6A" d="M58 90q-.65-.15-.9.3-.3.4-.05.9.7 1.15 2.4 2.2 2.2 1.35 4.55 1.35 2.35 0 4.5-1.35 1.7-1.05 2.4-2.2.25-.5 0-.9-.3-.45-.95-.3-3.15.9-5.95.9-2.85 0-6-.9z"/><path id="h" fill="#E0E0E0" d="M63.35 23.8V23q-.4-6.25-5.65-10.85-7.2-6.3-21.15-6.5H35.5q-13.95.2-21.1 6.5Q9.1 16.75 8.75 23q-.05.4-.05.8v14.55q.35-.3.95-.75.4-.35.95-.6l.4-.2 1.05 6.95Q17.8 34.8 19.4 25q4.55 3 8.3 4.25 3.75 1.25 7.8 1.2h1.05q6.7-.05 12.3-.7l4.1-.45q.1 0 .2.1L60 43.75l1.05-6.95.45.2q.5.25.9.55.65.5.95.8V23.8z"/><path id="i" fill="#E0E0E0" d="M26.2 56.9q.1.45.55.5.5.05.95.05h16.65q.45 0 .95-.05.45-.05.5-.5.1-.45-.75-1.2Q41.1 52.45 36 53q-5.05-.55-9 2.7-.85.75-.8 1.2z"/></defs><use transform="matrix(.56247 0 0 .56247 0 -.75)" xlink:href="#a"/><use transform="matrix(.56247 0 0 .56247 0 -.75)" xlink:href="#b"/><use transform="translate(0 -.3) scale(.5625)" xlink:href="#c"/><use transform="translate(0 -.3) scale(.5625)" xlink:href="#d"/><use transform="translate(0 -.3) scale(.5625)" xlink:href="#e"/><use transform="translate(0 -.3) scale(.5625)" xlink:href="#f"/><use transform="translate(0 -.3) scale(.5625)" xlink:href="#g"/><use xlink:href="#h"/><use xlink:href="#i"/></svg>

<svg xmlns="http://www.w3.org/2000/svg" version="1.1" xmlns:xlink="http://www.w3.org/1999/xlink" preserveAspectRatio="none" x="0px" y="0px" width="72px" height="72px" viewBox="0 0 72 72">
<defs>
<g id="Layer0_0_MEMBER_0_MEMBER_0_FILL">
<path fill="#C48E6A" stroke="none" d="
M 106.9 66.05
L 103.3 66.05 103.3 86.35
Q 108.05 86.35 111.15 83.95 114.75 81.15 114.75 75.9 114.75 70.6 110.85 67.8
L 106.9 66.05 Z"/>
</g>

<g id="Layer0_0_MEMBER_0_MEMBER_1_FILL">
<path fill="#C48E6A" stroke="none" d="
M 24.7 66.05
L 21.05 66.05 17.15 67.8
Q 13.2 70.6 13.2 75.9 13.2 81.15 16.8 83.95 19.9 86.35 24.7 86.35
L 24.7 66.05 Z"/>
</g>

<g id="Layer0_0_MEMBER_1_FILL">
<path fill="#E0BB95" stroke="none" d="
M 106.75 73.8
Q 106.75 43.35 98.1 28.35 87.85 10.6 64 10.6 40.1 10.6 29.85 28.35 21.2 43.35 21.2 73.8 21.2 99.7 35.8 112.25 47.05 122 64 122 80.8 122 92.1 112.35 106.75 99.8 106.75 73.8 Z"/>
</g>

<g id="Layer0_0_MEMBER_2_FILL">
<path fill="#444444" stroke="none" d="
M 40.15 72.35
Q 38.45 74.35 38.45 77.2 38.45 80.1 40.15 82.1 41.8 84.1 44.2 84.1 46.55 84.1 48.25 82.1 49.9 80.05 49.9 77.2 49.9 74.35 48.25 72.35 46.55 70.3 44.2 70.3 41.8 70.3 40.15 72.35 Z"/>
</g>

<g id="Layer0_0_MEMBER_3_FILL">
<path fill="#444444" stroke="none" d="
M 87.85 72.35
Q 86.15 70.3 83.8 70.3 81.4 70.3 79.75 72.35 78.05 74.35 78.05 77.2 78.05 80.05 79.75 82.1 81.4 84.1 83.8 84.1 86.15 84.1 87.85 82.1 89.5 80.1 89.5 77.2 89.5 74.35 87.85 72.35 Z"/>
</g>

<g id="Layer0_0_MEMBER_4_FILL">
<path fill="#513F35" stroke="none" d="
M 63.95 108.75
Q 68.85 108.75 72.95 106.6 76.15 104.9 77.45 102.9 78.15 101.85 77.8 101.2 77.45 100.55 76.35 100.55
L 51.6 100.55
Q 50.5 100.55 50.15 101.2 49.8 101.85 50.5 102.9 51.8 104.9 55 106.6 59.1 108.75 63.95 108.75 Z"/>
</g>

<g id="Layer0_0_MEMBER_5_FILL">
<path fill="#C48E6A" stroke="none" d="
M 58 90
Q 57.35 89.85 57.1 90.3 56.8 90.7 57.05 91.2 57.75 92.35 59.45 93.4 61.65 94.75 64 94.75 66.35 94.75 68.5 93.4 70.2 92.35 70.9 91.2 71.15 90.7 70.9 90.3 70.6 89.85 69.95 90 66.8 90.9 64 90.9 61.15 90.9 58 90 Z"/>
</g>

<g id="Layer0_0_MEMBER_6_FILL">
<path fill="#E0E0E0" stroke="none" d="
M 63.35 23.8
Q 63.35 23.4 63.35 23 62.95 16.75 57.7 12.15 50.5 5.85 36.55 5.65
L 35.5 5.65
Q 21.55 5.85 14.4 12.15 9.1 16.75 8.75 23 8.7 23.4 8.7 23.8
L 8.7 38.35
Q 9.05 38.05 9.65 37.6 10.05 37.25 10.6 37
L 11 36.8 12.05 43.75
Q 17.8 34.8 19.4 25 23.95 28 27.7 29.25 31.45 30.5 35.5 30.45
L 36.55 30.45
Q 43.25 30.4 48.85 29.75
L 52.95 29.3
Q 53.05 29.3 53.15 29.4
L 60 43.75 61.05 36.8 61.5 37
Q 62 37.25 62.4 37.55 63.05 38.05 63.35 38.35
L 63.35 23.8 Z"/>
</g>

<g id="Layer0_0_MEMBER_7_FILL">
<path fill="#E0E0E0" stroke="none" d="
M 26.2 56.9
Q 26.3 57.35 26.75 57.4 27.25 57.45 27.7 57.45
L 44.35 57.45
Q 44.8 57.45 45.3 57.4 45.75 57.35 45.8 56.9 45.9 56.45 45.05 55.7 41.1 52.45 36 53 30.95 52.45 27 55.7 26.15 56.45 26.2 56.9 Z"/>
</g>
</defs>

<g id="Layer_1">
<g transform="matrix( 0.562469482421875, 0, 0, 0.562469482421875, 0,-0.75) ">
<use xlink:href="#Layer0_0_MEMBER_0_MEMBER_0_FILL"/>
</g>

<g transform="matrix( 0.562469482421875, 0, 0, 0.562469482421875, 0,-0.75) ">
<use xlink:href="#Layer0_0_MEMBER_0_MEMBER_1_FILL"/>
</g>

<g transform="matrix( 0.5625, 0, 0, 0.5625, 0,-0.3) ">
<use xlink:href="#Layer0_0_MEMBER_1_FILL"/>
</g>

<g transform="matrix( 0.5625, 0, 0, 0.5625, 0,-0.3) ">
<use xlink:href="#Layer0_0_MEMBER_2_FILL"/>
</g>

<g transform="matrix( 0.5625, 0, 0, 0.5625, 0,-0.3) ">
<use xlink:href="#Layer0_0_MEMBER_3_FILL"/>
</g>

<g transform="matrix( 0.5625, 0, 0, 0.5625, 0,-0.3) ">
<use xlink:href="#Layer0_0_MEMBER_4_FILL"/>
</g>

<g transform="matrix( 0.5625, 0, 0, 0.5625, 0,-0.3) ">
<use xlink:href="#Layer0_0_MEMBER_5_FILL"/>
</g>

<g transform="matrix( 1, 0, 0, 1, 0,0) ">
<use xlink:href="#Layer0_0_MEMBER_6_FILL"/>
</g>

<g transform="matrix( 1, 0, 0, 1, 0,0) ">
<use xlink:href="#Layer0_0_MEMBER_7_FILL"/>
</g>
</g>
</svg>
